lib/flags/m/VEN.svg

<svg xmlns="http://www.w3.org/2000/svg" fill="none" viewBox="0 0 20 15"><mask id="VEN_svg__a" width="20" height="15" x="0" y="0" mask-type="alpha" maskUnits="userSpaceOnUse"><rect width="20" height="15" fill="#fff" rx="1.25"/></mask><g mask="url(#VEN_svg__a)"><path fill="#2E42A5" fill-rule="evenodd" d="M0 0V15H20V0H0Z" clip-rule="evenodd"/><mask id="VEN_svg__b" width="20" height="15" x="0" y="0" mask-type="alpha" maskUnits="userSpaceOnUse"><path fill="#fff" fill-rule="evenodd" d="M0 0V15H20V0H0Z" clip-rule="evenodd"/></mask><g fill-rule="evenodd" clip-rule="evenodd" mask="url(#VEN_svg__b)"><path fill="#FECA00" d="M0 0V5H20V0H0Z"/><path fill="#E31D1C" d="M0 10V15H20V10H0Z"/><path fill="#F7FCFF" d="M7.9605 7.41206 8.57468 7.06363 9.26382 7.41206 9.01634 6.70392 9.53105 6.18355H8.87597L8.57376 5.51343 8.31603 6.18355H7.54758L8.12539 6.69461H7.47737L7.17516 6.02449 6.91743 6.69461H6.14898L6.73732 7.21498 6.62487 7.66894H6.13452L5.83231 6.99882 5.57457 7.66894H4.80613L5.39446 8.18932 5.28565 8.62859H5.07097L4.76876 7.95847 4.51103 8.62859H3.74258L4.33092 9.14896 4.15551 9.8571 4.76969 9.50868 5.45883 9.8571 5.21134 9.14896 5.72605 8.62859H5.69298L5.83323 8.54903 6.52237 8.89745 6.27488 8.18932 6.56983 7.89112 6.56191 7.92312 7.17609 7.5747 7.86522 7.92312 7.61774 7.21498 8.12916 6.69794 8.13592 6.70392 7.9605 7.41206zM12.0143 7.38472 11.4001 7.03629 10.711 7.38472 10.9585 6.67658 10.4438 6.1562H11.0989L11.4011 5.48608 11.6588 6.1562H12.4272L11.8494 6.66727H12.5005L12.8027 5.99715 13.0604 6.66727H13.8289L13.2406 7.18764 13.353 7.6416H13.8434L14.1456 6.97148 14.4033 7.6416H15.1717L14.5834 8.16197 14.6922 8.60125H14.9069L15.2091 7.93113 15.4668 8.60125H16.2353L15.647 9.12162 15.8224 9.82976 15.2082 9.48133 14.519 9.82976 14.7665 9.12162 14.2518 8.60125H14.2849L14.1446 8.52168 13.4555 8.87011 13.703 8.16197 13.408 7.86378 13.416 7.89578 12.8018 7.54735 12.1127 7.89578 12.3601 7.18764 11.8473 6.66915 11.8389 6.67658 12.0143 7.38472z"/><path fill="#F7FCFF" d="M9.89557 6.58414L9.28139 6.93257L9.4568 6.22443L8.86847 5.70406H9.63692L9.89465 5.03394L10.1969 5.70406H10.8519L10.3372 6.22443L10.5847 6.93257L9.89557 6.58414Z"/></g></g></svg>

<svg xmlns="http://www.w3.org/2000/svg" fill="none" viewBox="0 0 20 15"><mask id="VEN_svg__a" width="20" height="15" x="0" y="0" maskUnits="userSpaceOnUse"><rect width="20" height="15" fill="#fff" rx="1.25"/></mask><g mask="url(#VEN_svg__a)"><path fill="#2E42A5" fill-rule="evenodd" d="M0 0v15h20V0H0z" clip-rule="evenodd"/><mask id="VEN_svg__b" width="20" height="15" x="0" y="0" maskUnits="userSpaceOnUse"><path fill="#fff" fill-rule="evenodd" d="M0 0v15h20V0H0z" clip-rule="evenodd"/></mask><g fill-rule="evenodd" clip-rule="evenodd" mask="url(#VEN_svg__b)"><path fill="#FECA00" d="M0 0v5h20V0H0z"/><path fill="#E31D1C" d="M0 10v5h20v-5H0z"/><path fill="#F7FCFF" d="M7.96 7.412l.615-.348.689.348-.248-.708.515-.52h-.655l-.302-.67-.258.67h-.768l.577.51h-.648l-.302-.67-.258.67H6.15l.588.521-.112.454h-.49l-.303-.67-.257.67h-.769l.588.52-.108.44H5.07l-.302-.67-.258.67h-.768l.588.52-.176.708.615-.348.689.348-.248-.708.515-.52h-.033l.14-.08.69.349-.248-.709.295-.298-.008.032.614-.348.69.348-.248-.708.511-.517.007.006-.176.708zm4.054-.027l-.614-.349-.689.349.248-.708-.515-.52h.655l.302-.67.258.67h.768l-.578.51h.652l.302-.67.257.67h.769l-.588.52.112.455h.49l.303-.67.257.67h.769l-.589.52.11.44h.214l.302-.67.258.67h.768l-.588.52.175.708-.614-.349-.689.349.248-.708-.515-.52h.033l-.14-.08-.69.348.248-.708-.295-.298.008.032-.614-.349-.69.349.248-.708-.513-.519-.008.008.175.708z"/><path fill="#F7FCFF" d="M9.896 6.584l-.615.349.176-.709-.589-.52h.769l.258-.67.302.67h.655l-.515.52.248.709-.69-.349z"/></g></g></svg>
